X:3
T:L\"andler  F 7-
%%MIDI program 21
R:
M:3/4
L:1/8
K:F %%MIDI gchordon
"F"Ac fA cf | "C7"e2Ged2 | CE GB ce | "F"f2Adc2 | Ac fA cf | "C7"e2Ged2 | 
CE GB ce |1 "F"f2z2z2 :|2 "F"f2z2Ac |: "C7"dc BC EG | "F"AG FA, CF | "C7"ED CB AG | 
"F"FC FA c2 | "C7"dc BC EG | "F"AG FA, CF | "C7"ED CB AG |1 "F"F2z2Ac :|2 "F"F2z2z2 |] 
% LD05890

